dist/icons/insta-black-icon.svg

<svg width="30" height="30" viewBox="0 0 30 30" fill="none" xmlns="http://www.w3.org/2000/svg">
<g>
<path d="M29.7417 8.91294C29.7814 12.5842 29.821 16.2254 29.8607 19.8966C29.8607 19.9666 29.6724 21.9573 29.5534 22.8876C29.0975 26.2887 26.9965 28.7396 23.7359 29.5798C21.7538 30.09 8.84026 30.11 7.15546 29.8199C3.86514 29.2597 1.55596 27.4791 0.614458 24.168C0.336961 23.1777 0.257676 22.1273 0.128838 21.087C0.0792848 17.3458 0.0396424 13.6445 0 9.90327C0.118927 8.97296 0.188301 8.04265 0.317139 7.12235C0.773027 3.72121 2.87408 1.2804 6.13466 0.430117C8.1267 -0.080053 21.0303 -0.10006 22.7151 0.190037C26.0054 0.750224 28.3245 2.52081 29.2561 5.84192C29.5336 6.83225 29.6129 7.8826 29.7417 8.91294ZM26.719 14.955C26.6595 12.6842 26.6397 10.4234 26.5208 8.16269C26.3424 4.96163 24.3801 2.90094 21.2285 2.83092C16.7886 2.73088 12.3288 2.73088 7.88884 2.83092C4.79673 2.90094 2.73533 5.00164 2.66595 8.15269C2.56685 12.6542 2.56685 17.1757 2.66595 21.6772C2.73533 24.8583 4.79673 26.939 7.94831 27.009C12.3684 27.109 16.7985 27.119 21.2285 27.009C24.3801 26.939 26.3523 24.8783 26.5307 21.6872C26.6397 19.4465 26.6595 17.2057 26.719 14.955Z" fill="black"/>
<path d="M14.6579 7.20244C18.8401 7.24245 22.2494 10.7736 22.1998 15.015C22.1503 19.2565 18.6617 22.7076 14.4795 22.6476C10.317 22.5876 6.9375 19.0864 6.96724 14.865C6.99697 10.6136 10.4657 7.15242 14.6579 7.20244ZM14.5984 19.8967C17.2941 19.8967 19.5041 17.6359 19.4942 14.885C19.4843 12.1541 17.2544 9.93335 14.5389 9.94335C11.8631 9.95336 9.66292 12.2241 9.67283 14.985C9.67283 17.6659 11.9225 19.9067 14.5984 19.8967Z" fill="black"/>
<path d="M22.4574 8.69288C21.4167 8.69288 20.6635 7.93262 20.6834 6.90228C20.7032 5.90195 21.4564 5.14169 22.4475 5.13169C23.4682 5.12169 24.2413 5.88194 24.2413 6.92229C24.2413 7.96263 23.5079 8.69288 22.4574 8.69288Z" fill="black"/>
</g>
</svg>

<svg width="30" height="30" fill="none" xmlns="http://www.w3.org/2000/svg"><g fill="#000"><path d="M29.742 8.913l.119 10.984c0 .07-.189 2.06-.308 2.99-.456 3.402-2.556 5.853-5.817 6.693-1.982.51-14.896.53-16.58.24-3.29-.56-5.6-2.34-6.542-5.652-.277-.99-.356-2.04-.485-3.081C.079 17.346.039 13.645 0 9.903c.119-.93.188-1.86.317-2.78C.773 3.72 2.874 1.28 6.135.43 8.127-.08 21.03-.1 22.715.19c3.29.56 5.61 2.33 6.541 5.652.278.99.357 2.04.486 3.07zm-3.023 6.042c-.06-2.27-.08-4.532-.198-6.792-.179-3.201-2.14-5.262-5.293-5.332-4.44-.1-8.9-.1-13.34 0C4.798 2.9 2.736 5 2.667 8.153c-.1 4.501-.1 9.023 0 13.524.07 3.181 2.13 5.262 5.282 5.332 4.42.1 8.85.11 13.28 0 3.152-.07 5.124-2.13 5.303-5.322.109-2.24.129-4.481.188-6.732z"/><path d="M14.658 7.202c4.182.04 7.591 3.572 7.542 7.813-.05 4.241-3.538 7.693-7.72 7.633-4.163-.06-7.543-3.562-7.513-7.783.03-4.251 3.499-7.713 7.69-7.663zm-.06 12.695c2.696 0 4.906-2.261 4.896-5.012-.01-2.73-2.24-4.952-4.955-4.942-2.676.01-4.876 2.281-4.866 5.042 0 2.68 2.25 4.922 4.925 4.912zm7.859-11.204c-1.04 0-1.794-.76-1.774-1.79.02-1.001.773-1.761 1.765-1.771 1.02-.01 1.793.75 1.793 1.79s-.733 1.77-1.784 1.77z"/></g></svg>
